X:1
T:Mère, mettez le chat cuire (major key)
T:Mère, mettez le chat cuire (major key)
T:Morvan
C:Morvan
L:1/8
M:2/4
K:G
V:1 treble nm="Klavier" snm="Flgl."
V:1
|: G2 DG | AA BA | G2 DG | AB G2 :: B2 AG | FE D2 | EF ED | EF ED | B2 AG | FE D2 | EF ED | %11
 BA G2 :| %12

